src/assets/duotone/PenTool2.svg

<svg width="24" height="24" viewBox="0 0 24 24"  xmlns="http://www.w3.org/2000/svg">
<path d="M12.52 1.5H11.52C10.69 1.5 10.02 2.17 10.02 3V4C10.02 4.83 10.69 5.5 11.52 5.5H12.52C13.35 5.5 14.02 4.83 14.02 4V3C14.02 2.17 13.35 1.5 12.52 1.5Z" />
<path d="M4.27002 10.6699H3.27002C2.44002 10.6699 1.77002 11.3399 1.77002 12.1699V13.1699C1.77002 13.9999 2.44002 14.6699 3.27002 14.6699H4.27002C5.10002 14.6699 5.77002 13.9999 5.77002 13.1699V12.1699C5.77002 11.3399 5.09002 10.6699 4.27002 10.6699Z" />
<path d="M20.73 10.6699H19.73C18.9 10.6699 18.23 11.3399 18.23 12.1699V13.1699C18.23 13.9999 18.9 14.6699 19.73 14.6699H20.73C21.56 14.6699 22.23 13.9999 22.23 13.1699V12.1699C22.23 11.3399 21.56 10.6699 20.73 10.6699Z" />
<path d="M3.75 11.9198C3.34 11.9198 3 11.5798 3 11.1698C3 6.89982 6.2 3.30984 10.44 2.80984C10.84 2.76984 11.22 3.05981 11.27 3.46981C11.32 3.87981 11.02 4.24983 10.61 4.29983C7.13 4.70983 4.5 7.65982 4.5 11.1698C4.5 11.5798 4.16 11.9198 3.75 11.9198Z" />
<path d="M20.25 11.9198C19.84 11.9198 19.5 11.5798 19.5 11.1698C19.5 7.67979 16.89 4.72981 13.43 4.30981C13.02 4.25981 12.73 3.88979 12.78 3.47979C12.83 3.06979 13.21 2.77982 13.62 2.82982C17.83 3.33982 21.01 6.9298 21.01 11.1798C21 11.5798 20.67 11.9198 20.25 11.9198Z" />
<path d="M13.2898 22.0101H10.7198C9.79983 22.0101 9.11982 21.2701 9.28982 20.4701L9.70983 18.6201H14.2998L14.7198 20.4701C14.9098 21.3201 14.2698 22.0101 13.2898 22.0101Z" />
<path opacity="0.4" d="M16.0698 17.0499L14.2998 18.6199H9.70981L7.93981 17.0499C6.90981 16.2099 6.90981 15.5599 7.68981 14.5699L10.8098 10.6299C11.0298 10.3599 11.2798 10.1699 11.5498 10.0799C11.8398 9.97988 12.1598 9.97988 12.4498 10.0799C12.7198 10.1799 12.9698 10.3599 13.1898 10.6299L16.3098 14.5699C17.0898 15.5599 17.0598 16.1799 16.0698 17.0499Z" />
</svg>

<?xml version="1.0" encoding="UTF-8"?>
<svg width="24" height="24" viewBox="0 0 24 24" xmlns="http://www.w3.org/2000/svg">
 <path d="m12.52 1.5h-1c-0.83 0-1.5 0.67-1.5 1.5v1c0 0.83 0.67 1.5 1.5 1.5h1c0.83 0 1.5-0.67 1.5-1.5v-1c0-0.83-0.67-1.5-1.5-1.5z"/>
 <path d="m4.27 10.67h-1c-0.83 0-1.5 0.67-1.5 1.5v1c0 0.83 0.67 1.5 1.5 1.5h1c0.83 0 1.5-0.67 1.5-1.5v-1c0-0.83-0.68-1.5-1.5-1.5z"/>
 <path d="m20.73 10.67h-1c-0.83 0-1.5 0.67-1.5 1.5v1c0 0.83 0.67 1.5 1.5 1.5h1c0.83 0 1.5-0.67 1.5-1.5v-1c0-0.83-0.67-1.5-1.5-1.5z"/>
 <path d="m3.75 11.92c-0.41 0-0.75-0.34-0.75-0.75 0-4.27 3.2-7.86 7.44-8.36 0.4-0.04 0.78 0.24997 0.83 0.65997s-0.25 0.78002-0.66 0.83002c-3.48 0.41-6.11 3.36-6.11 6.87 0 0.41-0.34 0.75-0.75 0.75z"/>
 <path d="m20.25 11.92c-0.41 0-0.75-0.34-0.75-0.75 0-3.49-2.61-6.44-6.07-6.86-0.41-0.05-0.7-0.42002-0.65-0.83002s0.43-0.69997 0.84-0.64997c4.21 0.51 7.39 4.1 7.39 8.35-0.01 0.4-0.34 0.74-0.76 0.74z"/>
 <path d="m13.29 22.01h-2.57c-0.91997 0-1.6-0.74-1.43-1.54l0.42001-1.85h4.59l0.42 1.85c0.19 0.85-0.45 1.54-1.43 1.54z"/>
 <path d="m16.07 17.05-1.77 1.57h-4.59l-1.77-1.57c-1.03-0.84-1.03-1.49-0.25-2.48l3.12-3.94c0.22-0.27 0.47-0.46 0.74-0.55 0.29-0.10002 0.61-0.10002 0.9 0 0.27 0.1 0.52 0.28 0.74 0.55l3.12 3.94c0.78 0.99 0.75 1.61-0.24 2.48z" opacity=".4"/>
</svg>
